svg/logo/weibo_fill.svg

<?xml version="1.0" encoding="UTF-8"?>
<svg width="24px" height="24px" viewBox="0 0 24 24" version="1.1" xmlns="http://www.w3.org/2000/svg" xmlns:xlink="http://www.w3.org/1999/xlink">
    <title>weibo_fill</title>
    <g id="页面-1" stroke="none" stroke-width="1" fill="none" fill-rule="evenodd">
        <g id="Logo" transform="translate(-384.000000, -144.000000)" fill-rule="nonzero">
            <g id="weibo_fill" transform="translate(384.000000, 144.000000)">
                 <path d="M24,0 L24,24 L0,24 L0,0 L24,0 Z M12.5934901,23.257841 L12.5819402,23.2595131 L12.5108777,23.2950439 L12.4918791,23.2987469 L12.4918791,23.2987469 L12.4767152,23.2950439 L12.4056548,23.2595131 C12.3958229,23.2563662 12.3870493,23.2590235 12.3821421,23.2649074 L12.3780323,23.275831 L12.360941,23.7031097 L12.3658947,23.7234994 L12.3769048,23.7357139 L12.4804777,23.8096931 L12.4953491,23.8136134 L12.4953491,23.8136134 L12.5071152,23.8096931 L12.6106902,23.7357139 L12.6232938,23.7196733 L12.6232938,23.7196733 L12.6266527,23.7031097 L12.609561,23.275831 C12.6075724,23.2657013 12.6010112,23.2592993 12.5934901,23.257841 L12.5934901,23.257841 Z M12.8583906,23.1452862 L12.8445485,23.1473072 L12.6598443,23.2396597 L12.6498822,23.2499052 L12.6498822,23.2499052 L12.6471943,23.2611114 L12.6650943,23.6906389 L12.6699349,23.7034178 L12.6699349,23.7034178 L12.678386,23.7104931 L12.8793402,23.8032389 C12.8914285,23.8068999 12.9022333,23.8029875 12.9078286,23.7952264 L12.9118235,23.7811639 L12.8776777,23.1665331 C12.8752882,23.1545897 12.8674102,23.1470016 12.8583906,23.1452862 L12.8583906,23.1452862 Z M12.1430473,23.1473072 C12.1332178,23.1423925 12.1221763,23.1452606 12.1156365,23.1525954 L12.1099173,23.1665331 L12.0757714,23.7811639 C12.0751323,23.7926639 12.0828099,23.8018602 12.0926481,23.8045676 L12.108256,23.8032389 L12.3092106,23.7104931 L12.3186497,23.7024347 L12.3186497,23.7024347 L12.3225043,23.6906389 L12.340401,23.2611114 L12.337245,23.2485176 L12.337245,23.2485176 L12.3277531,23.2396597 L12.1430473,23.1473072 Z" id="MingCute" fill-rule="nonzero"></path>
                <path d="M8.77327,5.60531 C10.4076,4.75847 12.0591,4.77655 13.1203,5.81522 C13.6691,6.35233 13.9458,7.05407 13.9829,7.80727 C15.6575,7.30464 17.0283,7.44501 17.92,8.30699 C18.7676,9.12631 18.8571,10.2743 18.5366,11.2711 C19.9011,11.9613 21,13.0583 21,14.7147 C21,16.6459 19.7442,18.2405 18.0384,19.3011 C16.318,20.3709 14.0037,21 11.5,21 C8.9963,21 6.68203,20.3709 4.96155,19.3011 C3.25584,18.2405 2,16.6459 2,14.7147 C2,12.9525 2.84179,11.1264 4.04965,9.55946 C5.26954,7.97688 6.94008,6.55518 8.77327,5.60531 Z M17,3 C17.7879,3 18.5681,3.15519 19.2961,3.45672 C20.0241,3.75825 20.6855,4.20021 21.2426,4.75736 C21.7998,5.31451 22.2417,5.97595 22.5433,6.7039 C22.8448,7.43185 23,8.21207 23,9 C23,9.55228 22.5523,10 22,10 C21.48715,10 21.0644908,9.61395571 21.0067275,9.11662025 L21,9 C21,8.47471 20.8965,7.95457 20.6955,7.46927 C20.4945,6.98396 20.1999,6.54301 19.8284,6.17157 C19.457,5.80014 19.016,5.5055 18.5307,5.30448 C18.0454,5.10346 17.5253,5 17,5 C16.4477,5 16,4.55228 16,4 C16,3.44772 16.4477,3 17,3 Z" id="形状" fill="#09244B"></path>
            </g>
        </g>
    </g>
</svg>

<svg xmlns="http://www.w3.org/2000/svg" width="24" height="24"><g fill="none" fill-rule="nonzero"><path d="M24 0v24H0V0h24ZM12.593 23.258l-.011.002-.071.035-.02.004-.014-.004-.071-.035c-.01-.004-.019-.001-.024.005l-.004.01-.017.428.005.02.01.013.104.074.015.004.012-.004.104-.074.012-.016.004-.017-.017-.427c-.002-.01-.009-.017-.017-.018Zm.265-.113-.013.002-.185.093-.01.01-.003.011.018.43.005.012.008.007.201.093c.012.004.023 0 .029-.008l.004-.014-.034-.614c-.003-.012-.01-.02-.02-.022Zm-.715.002a.023.023 0 0 0-.027.006l-.006.014-.034.614c0 .012.007.02.017.024l.015-.002.201-.093.01-.008.004-.011.017-.43-.003-.012-.01-.01-.184-.092Z"/><path fill="#09244B" d="M8.773 5.605c1.635-.847 3.286-.828 4.347.21.55.537.826 1.24.863 1.992 1.675-.502 3.045-.362 3.937.5.848.82.937 1.967.617 2.964C19.9 11.961 21 13.058 21 14.715c0 1.93-1.256 3.526-2.962 4.586C16.318 20.371 14.004 21 11.5 21c-2.504 0-4.818-.63-6.538-1.699C3.256 18.241 2 16.646 2 14.715c0-1.762.842-3.589 2.05-5.156a14.557 14.557 0 0 1 4.723-3.954ZM17 3a6 6 0 0 1 6 6 1 1 0 0 1-1.993.117L21 9a4 4 0 0 0-4-4 1 1 0 1 1 0-2Z"/></g></svg>
